packages/sources/assets/src/assets/flag-kz.svg

<svg width="28" height="20" viewBox="0 0 28 20" fill="none" xmlns="http://www.w3.org/2000/svg">
<rect width="28" height="20" rx="2" fill="white"/>
<mask id="mask0_503_2578" style="mask-type:alpha" maskUnits="userSpaceOnUse" x="0" y="0" width="28" height="20">
<rect width="28" height="20" rx="2" fill="white"/>
</mask>
<g mask="url(#mask0_503_2578)">
<rect width="28" height="20" fill="#30C6E0"/>
<path fill-rule="evenodd" clip-rule="evenodd" d="M14 14C16.2091 14 18 12.2091 18 10C18 7.79086 16.2091 6 14 6C11.7909 6 10 7.79086 10 10C10 12.2091 11.7909 14 14 14Z" fill="#FFCD4B"/>
<path fill-rule="evenodd" clip-rule="evenodd" d="M12.3682 17.1495L14 14.7136L15.6318 17.1495L16.0451 14.2468L18.5722 15.7334L17.6852 12.9389L20.6071 13.1818L18.5954 11.0489L21.3333 10L18.5954 8.95112L20.6071 6.81818L17.6852 7.06111L18.5722 4.26657L16.0451 5.75318L15.6318 2.85052L14 5.28638L12.3682 2.85052L11.9548 5.75318L9.42773 4.26657L10.3147 7.06111L7.39288 6.81818L9.40456 8.95112L6.66666 10L9.40456 11.0489L7.39288 13.1818L10.3147 12.9389L9.42773 15.7334L11.9548 14.2468L12.3682 17.1495ZM18.6667 10C18.6667 12.5773 16.5773 14.6667 14 14.6667C11.4227 14.6667 9.33332 12.5773 9.33332 10C9.33332 7.42267 11.4227 5.33333 14 5.33333C16.5773 5.33333 18.6667 7.42267 18.6667 10Z" fill="#FFCD4B"/>
<path fill-rule="evenodd" clip-rule="evenodd" d="M1.33334 1.66666C1.33334 1.48257 1.48258 1.33333 1.66668 1.33333H2.33334C2.51744 1.33333 2.66668 1.48257 2.66668 1.66666V2.33333C2.66668 2.51742 2.51744 2.66666 2.33334 2.66666H1.66668C1.48258 2.66666 1.33334 2.51742 1.33334 2.33333V1.66666ZM1.33334 4.33333C1.33334 4.14923 1.48258 3.99999 1.66668 3.99999H2.33334C2.51744 3.99999 2.66668 4.14923 2.66668 4.33333V4.99999C2.66668 5.18409 2.51744 5.33333 2.33334 5.33333H1.66668C1.48258 5.33333 1.33334 5.18409 1.33334 4.99999V4.33333ZM1.66668 6.66666C1.48258 6.66666 1.33334 6.8159 1.33334 7V7.66666C1.33334 7.85076 1.48258 8 1.66668 8H2.33334C2.51744 8 2.66668 7.85076 2.66668 7.66666V7C2.66668 6.8159 2.51744 6.66666 2.33334 6.66666H1.66668ZM1.33334 9.66666C1.33334 9.48257 1.48258 9.33333 1.66668 9.33333H2.33334C2.51744 9.33333 2.66668 9.48257 2.66668 9.66666V10.3333C2.66668 10.5174 2.51744 10.6667 2.33334 10.6667H1.66668C1.48258 10.6667 1.33334 10.5174 1.33334 10.3333V9.66666ZM1.66668 12C1.48258 12 1.33334 12.1492 1.33334 12.3333V13C1.33334 13.1841 1.48258 13.3333 1.66668 13.3333H2.33334C2.51744 13.3333 2.66668 13.1841 2.66668 13V12.3333C2.66668 12.1492 2.51744 12 2.33334 12H1.66668ZM1.33334 15C1.33334 14.8159 1.48258 14.6667 1.66668 14.6667H2.33334C2.51744 14.6667 2.66668 14.8159 2.66668 15V15.6667C2.66668 15.8508 2.51744 16 2.33334 16H1.66668C1.48258 16 1.33334 15.8508 1.33334 15.6667V15ZM1.66668 17.3333C1.48258 17.3333 1.33334 17.4826 1.33334 17.6667V18.3333C1.33334 18.5174 1.48258 18.6667 1.66668 18.6667H2.33334C2.51744 18.6667 2.66668 18.5174 2.66668 18.3333V17.6667C2.66668 17.4826 2.51744 17.3333 2.33334 17.3333H1.66668ZM2.66668 16.3333C2.66668 16.1492 2.81592 16 3.00001 16H3.66668C3.85077 16 4.00001 16.1492 4.00001 16.3333V17C4.00001 17.1841 3.85077 17.3333 3.66668 17.3333H3.00001C2.81592 17.3333 2.66668 17.1841 2.66668 17V16.3333ZM3.00001 13.3333C2.81592 13.3333 2.66668 13.4826 2.66668 13.6667V14.3333C2.66668 14.5174 2.81592 14.6667 3.00001 14.6667H3.66668C3.85077 14.6667 4.00001 14.5174 4.00001 14.3333V13.6667C4.00001 13.4826 3.85077 13.3333 3.66668 13.3333H3.00001ZM2.66668 11C2.66668 10.8159 2.81592 10.6667 3.00001 10.6667H3.66668C3.85077 10.6667 4.00001 10.8159 4.00001 11V11.6667C4.00001 11.8508 3.85077 12 3.66668 12H3.00001C2.81592 12 2.66668 11.8508 2.66668 11.6667V11ZM3.00001 7.99999C2.81592 7.99999 2.66668 8.14923 2.66668 8.33333V8.99999C2.66668 9.18409 2.81592 9.33333 3.00001 9.33333H3.66668C3.85077 9.33333 4.00001 9.18409 4.00001 8.99999V8.33333C4.00001 8.14923 3.85077 7.99999 3.66668 7.99999H3.00001ZM2.66668 5.66666C2.66668 5.48257 2.81592 5.33333 3.00001 5.33333H3.66668C3.85077 5.33333 4.00001 5.48257 4.00001 5.66666V6.33333C4.00001 6.51742 3.85077 6.66666 3.66668 6.66666H3.00001C2.81592 6.66666 2.66668 6.51742 2.66668 6.33333V5.66666ZM3.00001 2.66666C2.81592 2.66666 2.66668 2.8159 2.66668 3V3.66666C2.66668 3.85076 2.81592 3.99999 3.00001 3.99999H3.66668C3.85077 3.99999 4.00001 3.85076 4.00001 3.66666V2.99999C4.00001 2.8159 3.85077 2.66666 3.66668 2.66666H3.00001Z" fill="#FFCD4B"/>
</g>
</svg>

<svg width="28" height="20" fill="none" xmlns="http://www.w3.org/2000/svg"><rect width="28" height="20" rx="2" fill="#fff"/><mask id="a" style="mask-type:alpha" maskUnits="userSpaceOnUse" x="0" y="0" width="28" height="20"><rect width="28" height="20" rx="2" fill="#fff"/></mask><g mask="url(#a)"><path fill="#30C6E0" d="M0 0h28v20H0z"/><path fill-rule="evenodd" clip-rule="evenodd" d="M14 14a4 4 0 1 0 0-8 4 4 0 0 0 0 8Z" fill="#FFCD4B"/><path fill-rule="evenodd" clip-rule="evenodd" d="M12.368 17.15 14 14.713l1.632 2.435.413-2.902 2.527 1.486-.887-2.794 2.922.243-2.012-2.133L21.333 10l-2.738-1.049 2.012-2.133-2.922.243.887-2.794-2.527 1.486-.413-2.902L14 5.286l-1.632-2.435-.413 2.902-2.527-1.486.887 2.794-2.922-.243 2.012 2.133L6.667 10l2.738 1.049-2.012 2.133 2.922-.243-.887 2.794 2.527-1.486.413 2.902ZM18.667 10a4.667 4.667 0 1 1-9.334 0 4.667 4.667 0 0 1 9.334 0ZM1.333 1.667c0-.184.15-.334.334-.334h.666c.184 0 .334.15.334.334v.666c0 .184-.15.334-.334.334h-.666a.333.333 0 0 1-.334-.334v-.666Zm0 2.666c0-.184.15-.333.334-.333h.666c.184 0 .334.15.334.333V5c0 .184-.15.333-.334.333h-.666A.333.333 0 0 1 1.333 5v-.667Zm.334 2.334A.333.333 0 0 0 1.333 7v.667c0 .184.15.333.334.333h.666c.184 0 .334-.15.334-.333V7a.333.333 0 0 0-.334-.333h-.666Zm-.334 3c0-.184.15-.334.334-.334h.666c.184 0 .334.15.334.334v.666c0 .184-.15.334-.334.334h-.666a.333.333 0 0 1-.334-.334v-.666ZM1.667 12a.333.333 0 0 0-.334.333V13c0 .184.15.333.334.333h.666A.334.334 0 0 0 2.667 13v-.667A.333.333 0 0 0 2.333 12h-.666Zm-.334 3c0-.184.15-.333.334-.333h.666c.184 0 .334.149.334.333v.667c0 .184-.15.333-.334.333h-.666a.333.333 0 0 1-.334-.333V15Zm.334 2.333a.333.333 0 0 0-.334.334v.666c0 .184.15.334.334.334h.666c.184 0 .334-.15.334-.334v-.666a.333.333 0 0 0-.334-.334h-.666Zm1-1c0-.184.149-.333.333-.333h.667c.184 0 .333.15.333.333V17c0 .184-.15.333-.333.333H3A.333.333 0 0 1 2.667 17v-.667Zm.333-3a.333.333 0 0 0-.333.334v.666c0 .184.149.334.333.334h.667c.184 0 .333-.15.333-.334v-.666a.333.333 0 0 0-.333-.334H3ZM2.667 11c0-.184.149-.333.333-.333h.667c.184 0 .333.149.333.333v.667c0 .184-.15.333-.333.333H3a.333.333 0 0 1-.333-.333V11ZM3 8a.333.333 0 0 0-.333.333V9c0 .184.149.333.333.333h.667A.334.334 0 0 0 4 9v-.667A.333.333 0 0 0 3.667 8H3Zm-.333-2.333c0-.184.149-.334.333-.334h.667c.184 0 .333.15.333.334v.666c0 .184-.15.334-.333.334H3a.333.333 0 0 1-.333-.334v-.666Zm.333-3A.333.333 0 0 0 2.667 3v.667c0 .184.149.333.333.333h.667C3.85 4 4 3.85 4 3.667V3a.333.333 0 0 0-.333-.333H3Z" fill="#FFCD4B"/></g></svg>
